app/img/icons/card.svg

<svg height="512pt" viewBox="0 0 512.0005 512" width="512pt" xmlns="http://www.w3.org/2000/svg"><path d="m329.074219 409.855469c12.597656 12.601562 3.675781 34.144531-14.144531 34.144531h-234.929688c-44.183594 0-80-35.816406-80-80v-216c0-6.183594.707031-12.207031 2.042969-17.988281 3.523437-15.273438 22.539062-20.648438 33.625-9.5625 4.875 4.875 6.878906 11.910156 5.339843 18.628906-.660156 2.871094-1.007812 5.855469-1.007812 8.921875v26.121094h45.054688c5.300781 0 10.390624 2.105468 14.140624 5.859375 12.597657 12.597656 3.675782 34.019531-14.140624 34.019531h-45.054688v150c0 22.089844 17.910156 40 40 40h234.929688c5.304687 0 10.394531 2.105469 14.144531 5.855469zm142.925781-145.734375v-50h-229.59375l189.871094 189.871094c21.929687-.152344 39.722656-18.03125 39.722656-39.992188 0-11.046875 8.953125-20 20-20s20 8.953125 20 20c0 32.3125-19.269531 60.191406-46.910156 72.804688l41.050781 41.050781c7.8125 7.8125 7.8125 20.476562 0 28.285156-3.902344 3.90625-9.019531 5.859375-14.140625 5.859375-5.117188 0-10.238281-1.953125-14.140625-5.859375l-472-472c-7.8125-7.808594-7.8125-20.472656 0-28.28125 7.808594-7.8125 20.472656-7.8125 28.28125 0l62.144531 62.140625h335.714844c44.113281 0 80 35.886719 80 80v116.121094c0 11.046875-8.953125 20-20 20s-20-8.953125-20-20zm0-90v-26.121094c0-22.058594-17.945312-40-40-40h-295.714844l66.121094 66.121094zm0 0"/></svg>

<svg xmlns="http://www.w3.org/2000/svg" width="512pt" height="512pt" viewBox="0 0 512 512">
  <path d="M329.074 409.855C341.672 422.457 332.75 444 314.93 444H80c-44.184 0-80-35.816-80-80V148a79.83 79.83 0 012.043-17.988c3.523-15.274 22.539-20.649 33.625-9.563a20.009 20.009 0 015.34 18.63A39.763 39.763 0 0040 148v26.121h45.055c5.3 0 10.39 2.106 14.14 5.86C111.793 192.577 102.871 214 85.055 214H40v150c0 22.09 17.91 40 40 40h234.93a20.004 20.004 0 0114.144 5.855zM472 264.121v-50H242.406l189.871 189.871C454.207 403.84 472 385.961 472 364c0-11.047 8.953-20 20-20s20 8.953 20 20c0 32.313-19.27 60.191-46.91 72.805l41.05 41.05c7.813 7.813 7.813 20.477 0 28.286A19.922 19.922 0 01492 512a19.929 19.929 0 01-14.14-5.86l-472-472c-7.813-7.808-7.813-20.472 0-28.28 7.808-7.813 20.472-7.813 28.28 0L96.286 68H432c44.113 0 80 35.887 80 80v116.121c0 11.047-8.953 20-20 20s-20-8.953-20-20zm0-90V148c0-22.059-17.945-40-40-40H136.285l66.121 66.121zm0 0"/>
</svg>
